assets/svg/1F63C.svg

<svg xmlns="http://www.w3.org/2000/svg" viewBox="0 0 64 64" enable-background="new 0 0 64 64"><path fill="#7094a6" d="m49.765 10.667c-.988 4.137 9.02 12.775 11.932 13.47s1.558-8.159 1.425-13.12c-.142-5.11-.016-10.275-2.928-10.97-2.909-.694-9.444 6.484-10.429 10.62"/><path fill="#eda75a" d="m50.26 13.897c-.856 3.591 7.834 11.09 10.361 11.696 2.527.601 1.354-7.088 1.236-11.394-.122-4.435-.012-8.92-2.54-9.525-2.527-.604-8.202 5.632-9.06 9.223"/><path fill="#7094a6" d="m14.12 10.667c.989 4.137-9.02 12.775-11.931 13.47-2.912.695-1.562-8.159-1.425-13.12.138-5.11.016-10.275 2.924-10.97 2.913-.694 9.447 6.484 10.432 10.62"/><path fill="#eda75a" d="m13.842 13.897c.859 3.591-7.833 11.09-10.361 11.695-2.528.601-1.354-7.088-1.236-11.394.122-4.435.016-8.92 2.543-9.525 2.524-.603 8.199 5.633 9.05 9.224"/><path fill="#87b1c1" d="m63.55 31.429c0 17.552-14.224 31.774-31.774 31.774-17.552 0-31.775-14.223-31.775-31.774 0-17.552 14.223-29.765 31.774-29.765 17.551 0 31.775 12.213 31.775 29.765"/><path fill="#7094a6" d="m15.12 40.719c-5.632-12.08-5.275-24.05-.184-34.804-8.863 4.807-14.938 14.411-14.938 25.514 0 17.551 14.223 31.774 31.774 31.774.314 0 .62-.035.93-.047-7.284-6.131-13.422-13.509-17.582-22.437"/><path fill="#fff" d="m36.12 28.715c0 5.346 2.891 9.671 6.458 9.671s6.458-4.325 6.458-9.671c0-5.341-2.891-9.67-6.458-9.67s-6.458 4.329-6.458 9.67"/><path fill="#25333a" d="m38.4 28.715c0 2.798 1.868 5.066 4.178 5.066s4.176-2.268 4.176-5.066-1.866-5.067-4.176-5.067-4.178 2.269-4.178 5.067"/><path fill="#394c54" d="m34.453 24.606c1.87-6.652 10.371-10.169 16.707-10.24 1.851-.02 2.272 2.869.395 2.889-5.334.059-12.774 2.237-14.38 7.943-.511 1.81-3.227 1.198-2.722-.592"/><path fill="#fff" d="m27.436 28.385c0 5.345-2.891 9.67-6.458 9.67s-6.458-4.325-6.458-9.67c0-5.341 2.891-9.67 6.458-9.67s6.458 4.329 6.458 9.67"/><ellipse fill="#25333a" cx="20.978" cy="28.385" rx="4.178" ry="5.067"/><g fill="#394c54"><path d="m29.1 24.276c-1.87-6.652-10.371-10.168-16.709-10.239-1.849-.02-2.271 2.869-.393 2.889 5.334.059 12.775 2.237 14.38 7.943.51 1.809 3.226 1.197 2.722-.593"/><path d="m26.354 39.08c0-2.578 2.194-2.531 5.188-2.531 2.994 0 5.651-.047 5.651 2.531 0 2.582-2.426 4.674-5.42 4.674-2.989 0-5.419-2.092-5.419-4.674"/></g><g fill="#fff"><ellipse cx="20.734" cy="25.608" rx="1.224" ry="2.724"/><ellipse cx="42.587" cy="25.608" rx="1.225" ry="2.724"/></g><g fill="#394c54"><path d="m32.946 52.56c0 .48-.528.869-1.173.869l0 0c-.647 0-1.172-.389-1.172-.869v-5.283c0-.48.524-.869 1.172-.869l0 0c.646 0 1.173.389 1.173.869v5.283"/><path d="m27.777 52.744c5.385.463 10.998.329 16.02-2.502 2.343-1.321 4.02-4.064 4.437-2.93.921 2.512-2.01 6.03-3.369 6.703-5.521 2.728-11.456 2.735-17.245 2.241-.251-.024-.487-.091-.699-.2-.742-.393-1.115-1.319-.869-2.155.227-.772.902-1.228 1.724-1.157"/></g><g fill="#5e7d89"><path d="m23.25 41.815c-.043.754-.563 1.339-1.164 1.307l-16.936-.957c-.599-.035-1.052-.675-1.01-1.433l0 0c.043-.754.565-1.339 1.164-1.307l16.937.957c.6.036 1.051.676 1.01 1.433l0 0"/><path d="m22.579 44.986c.124.715-.18 1.36-.673 1.446l-13.996 2.428c-.495.086-.997-.422-1.121-1.134l0 0c-.124-.711.179-1.358.673-1.444l13.995-2.428c.496-.086.998.422 1.122 1.132l0 0"/><path d="m39.3 41.514c.043.753.563 1.338 1.164 1.307l16.937-.958c.597-.035 1.052-.675 1.01-1.433l0 0c-.043-.753-.565-1.338-1.164-1.307l-16.937.958c-.601.035-1.052.675-1.01 1.433l0 0"/><path d="m39.969 44.685c-.123.714.177 1.359.674 1.446l13.995 2.428c.494.086.997-.422 1.12-1.135l0 0c.124-.71-.179-1.357-.675-1.444l-13.995-2.428c-.493-.086-.995.422-1.119 1.133l0 0"/></g></svg>

<?xml version="1.0" encoding="UTF-8" standalone="no"?>
<!-- Generator: Adobe Illustrator 16.0.0, SVG Export Plug-In . SVG Version: 6.00 Build 0)  -->

<svg
   xmlns:dc="http://purl.org/dc/elements/1.1/"
   xmlns:cc="http://creativecommons.org/ns#"
   xmlns:rdf="http://www.w3.org/1999/02/22-rdf-syntax-ns#"
   xmlns:svg="http://www.w3.org/2000/svg"
   xmlns="http://www.w3.org/2000/svg"
   xmlns:sodipodi="http://sodipodi.sourceforge.net/DTD/sodipodi-0.dtd"
   xmlns:inkscape="http://www.inkscape.org/namespaces/inkscape"
   version="1.1"
   id="Layer_1"
   x="0px"
   y="0px"
   width="64px"
   height="64px"
   viewBox="0 0 64 64"
   enable-background="new 0 0 64 64"
   xml:space="preserve"
   inkscape:version="0.48.5 r10040"
   sodipodi:docname="1F63C.svg"
   inkscape:export-filename="D:\TESTINGEMOJI\SVGTEST\1F63C.png"
   inkscape:export-xdpi="90"
   inkscape:export-ydpi="90"><metadata
   id="metadata5702"><rdf:RDF><cc:Work
       rdf:about=""><dc:format>image/svg+xml</dc:format><dc:type
         rdf:resource="http://purl.org/dc/dcmitype/StillImage" /><dc:title></dc:title></cc:Work></rdf:RDF></metadata><defs
   id="defs5700" /><sodipodi:namedview
   pagecolor="#ffffff"
   bordercolor="#666666"
   borderopacity="1"
   objecttolerance="10"
   gridtolerance="10"
   guidetolerance="10"
   inkscape:pageopacity="0"
   inkscape:pageshadow="2"
   inkscape:window-width="640"
   inkscape:window-height="480"
   id="namedview5698"
   showgrid="false"
   inkscape:zoom="3.6875"
   inkscape:cx="32"
   inkscape:cy="32"
   inkscape:window-x="575"
   inkscape:window-y="380"
   inkscape:window-maximized="0"
   inkscape:current-layer="Layer_1" />
<g
   id="g5590">
	<g
   id="g5592">
		<g
   id="g5594">
			<path
   fill="#7094A6"
   d="M49.765,10.667c-0.988,4.137,9.02,12.775,11.932,13.47s1.558-8.159,1.425-13.12     c-0.142-5.11-0.016-10.275-2.928-10.97C57.285-0.647,50.75,6.531,49.765,10.667z"
   id="path5596" />
		</g>
	</g>
	<g
   id="g5598">
		<g
   id="g5600">
			<path
   fill="#EDA75A"
   d="M50.256,13.897C49.4,17.488,58.09,24.988,60.617,25.593c2.527,0.601,1.354-7.088,1.236-11.394     c-0.122-4.435-0.012-8.92-2.54-9.525C56.786,4.07,51.111,10.306,50.256,13.897z"
   id="path5602" />
		</g>
	</g>
	<g
   id="g5604">
		<g
   id="g5606">
			<path
   fill="#7094A6"
   d="M14.121,10.667c0.989,4.137-9.023,12.775-11.931,13.47c-2.912,0.695-1.562-8.159-1.425-13.12     c0.138-5.11,0.016-10.275,2.924-10.97C6.602-0.647,13.136,6.531,14.121,10.667z"
   id="path5608" />
		</g>
	</g>
	<g
   id="g5610">
		<g
   id="g5612">
			<path
   fill="#EDA75A"
   d="M13.842,13.897c0.859,3.591-7.833,11.091-10.361,11.695c-2.528,0.601-1.354-7.088-1.236-11.394     c0.122-4.435,0.016-8.92,2.543-9.525C7.312,4.07,12.987,10.306,13.842,13.897z"
   id="path5614" />
		</g>
	</g>
	<g
   id="g5616">
		<g
   id="g5618">
			<path
   fill="#87B1C1"
   d="M63.549,31.429c0,17.552-14.224,31.774-31.774,31.774C14.223,63.203,0,48.98,0,31.429     C0,13.877,14.223,1.664,31.774,1.664C49.325,1.664,63.549,13.877,63.549,31.429z"
   id="path5620" />
		</g>
	</g>
	<g
   id="g5622">
		<g
   id="g5624">
			<g
   id="g5626">
				<path
   fill="#7094A6"
   d="M15.122,40.719C9.49,28.638,9.847,16.664,14.938,5.915C6.075,10.722,0,20.326,0,31.429      C0,48.98,14.223,63.203,31.774,63.203c0.314,0,0.62-0.035,0.93-0.047C25.42,57.025,19.282,49.647,15.122,40.719z"
   id="path5628" />
			</g>
		</g>
	</g>
	<g
   id="g5630">
		<g
   id="g5632">
			<path
   fill="#FFFFFF"
   d="M36.117,28.715c0,5.346,2.891,9.671,6.458,9.671s6.458-4.325,6.458-9.671c0-5.341-2.891-9.67-6.458-9.67     S36.117,23.374,36.117,28.715z"
   id="path5634" />
		</g>
	</g>
	<g
   id="g5636">
		<g
   id="g5638">
			<path
   fill="#25333A"
   d="M38.397,28.715c0,2.798,1.868,5.066,4.178,5.066s4.176-2.268,4.176-5.066s-1.866-5.067-4.176-5.067     S38.397,25.917,38.397,28.715z"
   id="path5640" />
		</g>
	</g>
	<g
   id="g5642">
		<g
   id="g5644">
			<path
   fill="#394C54"
   d="M34.453,24.606c1.87-6.652,10.371-10.169,16.707-10.24c1.851-0.02,2.272,2.869,0.395,2.889     c-5.334,0.059-12.774,2.237-14.38,7.943C36.664,27.008,33.948,26.396,34.453,24.606z"
   id="path5646" />
		</g>
	</g>
	<g
   id="g5648">
		<g
   id="g5650">
			<path
   fill="#FFFFFF"
   d="M27.436,28.385c0,5.345-2.891,9.67-6.458,9.67s-6.458-4.325-6.458-9.67c0-5.341,2.891-9.67,6.458-9.67     S27.436,23.044,27.436,28.385z"
   id="path5652" />
		</g>
	</g>
	<g
   id="g5654">
		<g
   id="g5656">
			<ellipse
   fill="#25333A"
   cx="20.978"
   cy="28.385"
   rx="4.178"
   ry="5.067"
   id="ellipse5658" />
		</g>
	</g>
	<g
   id="g5660">
		<g
   id="g5662">
			<path
   fill="#394C54"
   d="M29.1,24.276c-1.87-6.652-10.371-10.168-16.709-10.239c-1.849-0.02-2.271,2.869-0.393,2.889     c5.334,0.059,12.775,2.237,14.38,7.943C26.888,26.678,29.604,26.066,29.1,24.276z"
   id="path5664" />
		</g>
	</g>
	<g
   id="g5666">
		<g
   id="g5668">
			<path
   fill="#394C54"
   d="M26.354,39.078c0-2.578,2.194-2.531,5.188-2.531c2.994,0,5.651-0.047,5.651,2.531     c0,2.582-2.426,4.674-5.42,4.674C28.784,43.752,26.354,41.66,26.354,39.078z"
   id="path5670" />
		</g>
	</g>
	<g
   id="g5672">
		<g
   id="g5674">
			<ellipse
   fill="#FFFFFF"
   cx="20.734"
   cy="25.608"
   rx="1.224"
   ry="2.724"
   id="ellipse5676" />
		</g>
	</g>
	<g
   id="g5678">
		<g
   id="g5680">
			<ellipse
   fill="#FFFFFF"
   cx="42.587"
   cy="25.608"
   rx="1.225"
   ry="2.724"
   id="ellipse5682" />
		</g>
	</g>
	<path
   fill="#394C54"
   d="M32.946,52.563c0,0.48-0.528,0.869-1.173,0.869l0,0c-0.647,0-1.172-0.389-1.172-0.869V47.28   c0-0.48,0.524-0.869,1.172-0.869l0,0c0.646,0,1.173,0.389,1.173,0.869V52.563z"
   id="path5684" />
	<path
   fill="#394C54"
   d="M27.777,52.744c5.385,0.463,10.998,0.329,16.021-2.502c2.343-1.321,4.022-4.064,4.437-2.93   c0.921,2.512-2.006,6.028-3.369,6.703c-5.521,2.728-11.456,2.735-17.245,2.241c-0.251-0.024-0.487-0.091-0.699-0.2   c-0.742-0.393-1.115-1.319-0.869-2.155C26.28,53.129,26.955,52.673,27.777,52.744z"
   id="path5686" />
	<g
   id="g5688">
		<path
   fill="#5E7D89"
   d="M23.246,41.815c-0.043,0.754-0.563,1.339-1.164,1.307L5.146,42.165c-0.599-0.035-1.052-0.675-1.009-1.433    l0,0c0.043-0.754,0.565-1.339,1.164-1.307l16.937,0.957C22.838,40.418,23.289,41.058,23.246,41.815L23.246,41.815z"
   id="path5690" />
		<path
   fill="#5E7D89"
   d="M22.579,44.986c0.124,0.715-0.18,1.36-0.673,1.446L7.91,48.86c-0.495,0.086-0.997-0.422-1.121-1.134l0,0    c-0.124-0.711,0.179-1.358,0.673-1.444l13.995-2.428C21.953,43.768,22.455,44.276,22.579,44.986L22.579,44.986z"
   id="path5692" />
		<path
   fill="#5E7D89"
   d="M39.302,41.514c0.043,0.753,0.563,1.338,1.164,1.307l16.937-0.958c0.597-0.035,1.052-0.675,1.009-1.433    l0,0c-0.043-0.753-0.565-1.338-1.164-1.307l-16.937,0.958C39.71,40.116,39.259,40.756,39.302,41.514L39.302,41.514z"
   id="path5694" />
		<path
   fill="#5E7D89"
   d="M39.969,44.685c-0.123,0.714,0.177,1.359,0.674,1.446l13.995,2.428c0.494,0.086,0.997-0.422,1.12-1.135    l0,0c0.124-0.71-0.179-1.357-0.675-1.444l-13.995-2.428C40.595,43.466,40.093,43.974,39.969,44.685L39.969,44.685z"
   id="path5696" />
	</g>
</g>
</svg>
